Papirus/64x64/apps/enteauth.svg

<?xml version="1.0" encoding="UTF-8" standalone="no"?>
<svg
   width="64"
   height="64"
   version="1.1"
   id="svg6"
   sodipodi:docname="enteauth@64x64.svg"
   inkscape:version="1.4 (1:1.4+202410161351+e7c3feb100)"
   xmlns:inkscape="http://www.inkscape.org/namespaces/inkscape"
   xmlns:sodipodi="http://sodipodi.sourceforge.net/DTD/sodipodi-0.dtd"
   xmlns="http://www.w3.org/2000/svg"
   xmlns:svg="http://www.w3.org/2000/svg">
  <defs
     id="defs6" />
  <sodipodi:namedview
     id="namedview6"
     pagecolor="#ffffff"
     bordercolor="#999999"
     borderopacity="1"
     inkscape:showpageshadow="2"
     inkscape:pageopacity="0"
     inkscape:pagecheckerboard="0"
     inkscape:deskcolor="#d1d1d1"
     inkscape:zoom="7.875"
     inkscape:cx="32.063492"
     inkscape:cy="32"
     inkscape:window-width="1366"
     inkscape:window-height="708"
     inkscape:window-x="0"
     inkscape:window-y="32"
     inkscape:window-maximized="1"
     inkscape:current-layer="svg6" />
  <g
     id="g6">
    <rect
       x="4"
       y="5"
       width="56"
       height="56"
       ry="11.629299"
       style="opacity:0.2"
       id="rect1" />
    <rect
       x="4"
       y="4"
       width="56"
       height="56"
       ry="11.629299"
       style="fill:#af47e5"
       id="rect2" />
    <path
       d="m13 20.8569 9.4435-4.1051c5.1939-2.2579 9.4472-4.1048 9.5565-4.1044 0.1094 5e-4 4.4953 1.8634 9.6421 4.1044l9.3579 4.1051v14.6874c0 14.2692-15.4656 21.809-19 21.809s-19-8.0553-19-21.809z"
       style="fill-rule:evenodd;opacity:.2"
       id="path2" />
    <path
       d="m13 18.8573 9.4435-4.1052c5.1939-2.2578 9.4472-4.1048 9.5565-4.1043 0.1094 4e-4 4.4953 1.8633 9.6421 4.1043l9.3579 4.1052v14.6873c0 14.2692-15.4656 21.8091-19 21.8091s-19-8.0553-19-21.8091z"
       style="fill-rule:evenodd;fill:#ffffff"
       id="path3" />
    <path
       d="m25.4774 46c-1.5983-0.026-2.4774-1.5717-2.4774-2.2733v-10.4397c0-1.2461 1.0274-2.287 1.9433-2.287 1.1009 0 1.0567-1.0186 1.0567-1.911 0 0 0.0289-2.7095 0-3.7564-0.0526-1.9098 2.5646-3.3326 6-3.3326s6 1.2494 6 3.3326v3.7564c0 0.8796-0.0027 1.911 0.9041 1.911 1.0982 0 2.0959 1.034 2.0959 2.287v10.4397c0 1.1401-1.1154 2.2996-2.6364 2.2733zm9.5226-15v-4.3341c0-0.972-1.0714-1.6459-3-1.6659s-3 0.8046-3 1.6659v4.3341z"
       style="fill-rule:evenodd;opacity:.2"
       id="path4" />
    <path
       d="m25.4774 45c-1.5983-0.026-2.4774-1.5717-2.4774-2.2733v-10.4397c0-1.2461 1.0274-2.287 1.9433-2.287 1.1009 0 1.0567-1.0186 1.0567-1.911 0 0 0.0289-2.7095 0-3.7564-0.0526-1.9098 2.5646-3.3326 6-3.3326s6 1.2494 6 3.3326v3.7564c0 0.8796-0.0027 1.911 0.9041 1.911 1.0982 0 2.0959 1.034 2.0959 2.287v10.4397c0 1.1401-1.1154 2.2996-2.6364 2.2733zm9.5226-15v-4.3341c0-0.972-1.0714-1.6459-3-1.6659s-3 0.8046-3 1.6659v4.3341z"
       style="fill-rule:evenodd;fill:#af47e5"
       id="path5" />
    <path
       d="m13.785 4.09844c1.047-0.18498 35.5617-0.08503 36.6087 0.09995 5.2247 0.92304 9.294 5.38469 9.549 10.46971l0.0573 1.1429-0.2566-0.9982c-1.1476-4.465-4.8504-8.02702-9.407-8.81136h-36.6158c-2.3606 0.52297-4.40832 1.67318-6.21806 3.25454-1.91937 1.76062-2.89559 4.09082-3.50254 6.55502 0-4.916 2.93527-10.50241 9.785-11.71256z"
       style="fill-rule:evenodd;fill:#ffffff;opacity:.2"
       id="path6" />
  </g>
</svg>

<?xml version="1.0" encoding="UTF-8" standalone="no"?>
<svg
   width="64"
   height="64"
   version="1.1"
   id="svg6"
   sodipodi:docname="enteauth@64x64.svg"
   inkscape:version="1.4 (1:1.4+202410161351+e7c3feb100)"
   xmlns:inkscape="http://www.inkscape.org/namespaces/inkscape"
   xmlns:sodipodi="http://sodipodi.sourceforge.net/DTD/sodipodi-0.dtd"
   xmlns="http://www.w3.org/2000/svg"
   xmlns:svg="http://www.w3.org/2000/svg">
  <defs
     id="defs6" />
  <sodipodi:namedview
     id="namedview6"
     pagecolor="#ffffff"
     bordercolor="#999999"
     borderopacity="1"
     inkscape:showpageshadow="2"
     inkscape:pageopacity="0"
     inkscape:pagecheckerboard="0"
     inkscape:deskcolor="#d1d1d1"
     inkscape:zoom="22.273864"
     inkscape:cx="22.245804"
     inkscape:cy="41.101985"
     inkscape:window-width="1366"
     inkscape:window-height="708"
     inkscape:window-x="0"
     inkscape:window-y="32"
     inkscape:window-maximized="1"
     inkscape:current-layer="g6" />
  <g
     id="g6">
    <rect
       x="4"
       y="5"
       width="56"
       height="56"
       ry="11.629299"
       style="opacity:0.2"
       id="rect1" />
    <rect
       x="4"
       y="4"
       width="56"
       height="56"
       ry="11.629299"
       style="fill:#af47e5"
       id="rect2" />
    <path
       d="m 13,20.8569 9.4435,-4.1051 C 27.6374,14.4939 31.8907,12.647 32,12.6474 c 0.1094,5e-4 4.4953,1.8634 9.6421,4.1044 L 51,20.8569 v 14.6874 c 0,14.2692 -15.4656,21.809 -19,21.809 -3.5344,0 -19,-8.0553 -19,-21.809 z"
       style="display:inline;opacity:0.2;fill-rule:evenodd;fill:#ffffff"
       id="path2" />
    <path
       d="m13 18.8573 9.4435-4.1052c5.1939-2.2578 9.4472-4.1048 9.5565-4.1043 0.1094 4e-4 4.4953 1.8633 9.6421 4.1043l9.3579 4.1052v14.6873c0 14.2692-15.4656 21.8091-19 21.8091s-19-8.0553-19-21.8091z"
       style="fill-rule:evenodd;fill:#ececec"
       id="path3" />
    <path
       d="M 25.4774,46 C 23.8791,45.974 23,44.4283 23,43.7267 V 33.287 C 23,32.0409 24.0274,31 24.9433,31 26.0442,31 26,29.9814 26,29.089 c 0,0 0.0289,-2.7095 0,-3.7564 C 25.9474,23.4228 28.5646,22 32,22 c 3.4354,0 6,1.2494 6,3.3326 V 29.089 C 38,29.9686 37.9973,31 38.9041,31 40.0023,31 41,32.034 41,33.287 V 43.7267 C 41,44.8668 39.8846,46.0263 38.3636,46 Z M 35,31 V 26.6659 C 35,25.6939 33.9286,25.02 32,25 30.0714,24.98 29,25.8046 29,26.6659 V 31 Z"
       style="display:inline;opacity:0.2;fill-rule:evenodd;fill:#000000"
       id="path4" />
    <path
       d="m25.4774 45c-1.5983-0.026-2.4774-1.5717-2.4774-2.2733v-10.4397c0-1.2461 1.0274-2.287 1.9433-2.287 1.1009 0 1.0567-1.0186 1.0567-1.911 0 0 0.0289-2.7095 0-3.7564-0.0526-1.9098 2.5646-3.3326 6-3.3326s6 1.2494 6 3.3326v3.7564c0 0.8796-0.0027 1.911 0.9041 1.911 1.0982 0 2.0959 1.034 2.0959 2.287v10.4397c0 1.1401-1.1154 2.2996-2.6364 2.2733zm9.5226-15v-4.3341c0-0.972-1.0714-1.6459-3-1.6659s-3 0.8046-3 1.6659v4.3341z"
       style="fill-rule:evenodd;fill:#af47e5"
       id="path5" />
    <path
       d="m13.785 4.09844c1.047-0.18498 35.5617-0.08503 36.6087 0.09995 5.2247 0.92304 9.294 5.38469 9.549 10.46971l0.0573 1.1429-0.2566-0.9982c-1.1476-4.465-4.8504-8.02702-9.407-8.81136h-36.6158c-2.3606 0.52297-4.40832 1.67318-6.21806 3.25454-1.91937 1.76062-2.89559 4.09082-3.50254 6.55502 0-4.916 2.93527-10.50241 9.785-11.71256z"
       style="fill-rule:evenodd;fill:#ffffff;opacity:.2"
       id="path6" />
  </g>
</svg>
